X:82
T:Jew's Restoration, The
M:2/4
L:1/8
B:Thompson's Compleat Collection of 200 Favourite Country Dances, vol. 1 (London, 1757)
Z:Transcribed and edited by Fynnian Titford-Mock, 2007
Z:abc's:AK/Fiddler's Companion
K:Gmin
dc BA|BG G2|dc BA|B2 G2|dc BA|BG G2|DG ^FA|G2 G,2:|
|:bag^f|gg g2|bag^f|g2 G2|(3bag (3ag^f|gg g2|bg a^f|g2 G2:|

